images/ubi.svg

<svg height="250" viewBox="0 0 250 250" width="250" xmlns="http://www.w3.org/2000/svg"><path d="m250 125c0 69.035156-55.964844 125-125 125s-125-55.964844-125-125 55.964844-125 125-125 125 55.964844 125 125zm0 0" fill="#ecfaf6"/><path d="m125 249.21875c68.605469 0 124.21875-55.613281 124.21875-124.21875s-55.613281-124.21875-124.21875-124.21875-124.21875 55.613281-124.21875 124.21875 55.613281 124.21875 124.21875 124.21875zm0 .78125c69.035156 0 125-55.964844 125-125s-55.964844-125-125-125-125 55.964844-125 125 55.964844 125 125 125zm0 0" fill="#00d9a1" fill-rule="evenodd"/><path d="m242.1875 125c0 64.722656-52.464844 117.1875-117.1875 117.1875s-117.1875-52.464844-117.1875-117.1875 52.464844-117.1875 117.1875-117.1875 117.1875 52.464844 117.1875 117.1875zm0 0" fill="#00d9a1"/><g fill="#fff"><path d="m125 239.84375c63.425781 0 114.84375-51.417969 114.84375-114.84375s-51.417969-114.84375-114.84375-114.84375-114.84375 51.417969-114.84375 114.84375 51.417969 114.84375 114.84375 114.84375zm0 2.34375c64.722656 0 117.1875-52.464844 117.1875-117.1875s-52.464844-117.1875-117.1875-117.1875-117.1875 52.464844-117.1875 117.1875 52.464844 117.1875 117.1875 117.1875zm0 0" fill-rule="evenodd"/><path d="m59.015625 58.347656c9.480469 0 17.164063 7.6875 17.164063 17.167969v58.753906c0 27.023438 21.90625 48.929688 48.929687 48.929688s48.929687-21.90625 48.929687-48.929688v-58.753906c0-9.480469 7.6875-17.167969 17.167969-17.167969v75.921875c0 36.503907-29.59375 66.097657-66.097656 66.097657s-66.09375-29.59375-66.09375-66.097657zm0 0" fill-rule="evenodd"/><path d="m88.527344 86.214844c7.816406 0 14.152344 6.335937 14.152344 14.152344v2.335937c6.191406-4.808594 13.964843-7.667969 22.40625-7.667969 20.191406 0 36.5625 16.367188 36.5625 36.558594s-16.371094 36.558594-36.5625 36.558594c-20.191407 0-36.558594-16.367188-36.558594-36.558594 0-.386719.003906-.769531.019531-1.15625h-.019531zm14.152344 45.378906c0 12.375 10.03125 22.40625 22.40625 22.40625 12.378906 0 22.410156-10.03125 22.410156-22.40625s-10.035156-22.40625-22.410156-22.40625-22.40625 10.03125-22.40625 22.40625zm0 0" fill-rule="evenodd"/><path d="m162.34375 81.386719c0 4.652343-3.769531 8.421875-8.421875 8.421875s-8.425781-3.769532-8.425781-8.421875c0-4.652344 3.773437-8.425781 8.425781-8.425781s8.421875 3.773437 8.421875 8.425781zm0 0"/></g></svg>

<svg xmlns="http://www.w3.org/2000/svg" xmlns:xlink="http://www.w3.org/1999/xlink" width="250px" height="250px" viewBox="0 0 250 250" version="1.1">
<g id="surface1">
<path style=" stroke:none;fill-rule:nonzero;fill:rgb(92.54902%,98.039216%,96.470588%);fill-opacity:1;" d="M 250 125 C 250 194.035156 194.035156 250 125 250 C 55.964844 250 0 194.035156 0 125 C 0 55.964844 55.964844 0 125 0 C 194.035156 0 250 55.964844 250 125 Z M 250 125 "/>
<path style=" stroke:none;fill-rule:evenodd;fill:rgb(0%,85.09804%,63.137257%);fill-opacity:1;" d="M 125 249.21875 C 193.605469 249.21875 249.21875 193.605469 249.21875 125 C 249.21875 56.394531 193.605469 0.78125 125 0.78125 C 56.394531 0.78125 0.78125 56.394531 0.78125 125 C 0.78125 193.605469 56.394531 249.21875 125 249.21875 Z M 125 250 C 194.035156 250 250 194.035156 250 125 C 250 55.964844 194.035156 0 125 0 C 55.964844 0 0 55.964844 0 125 C 0 194.035156 55.964844 250 125 250 Z M 125 250 "/>
<path style=" stroke:none;fill-rule:nonzero;fill:rgb(0%,85.09804%,63.137257%);fill-opacity:1;" d="M 242.1875 125 C 242.1875 189.722656 189.722656 242.1875 125 242.1875 C 60.277344 242.1875 7.8125 189.722656 7.8125 125 C 7.8125 60.277344 60.277344 7.8125 125 7.8125 C 189.722656 7.8125 242.1875 60.277344 242.1875 125 Z M 242.1875 125 "/>
<path style=" stroke:none;fill-rule:evenodd;fill:rgb(100%,100%,100%);fill-opacity:1;" d="M 125 239.84375 C 188.425781 239.84375 239.84375 188.425781 239.84375 125 C 239.84375 61.574219 188.425781 10.15625 125 10.15625 C 61.574219 10.15625 10.15625 61.574219 10.15625 125 C 10.15625 188.425781 61.574219 239.84375 125 239.84375 Z M 125 242.1875 C 189.722656 242.1875 242.1875 189.722656 242.1875 125 C 242.1875 60.277344 189.722656 7.8125 125 7.8125 C 60.277344 7.8125 7.8125 60.277344 7.8125 125 C 7.8125 189.722656 60.277344 242.1875 125 242.1875 Z M 125 242.1875 "/>
<path style=" stroke:none;fill-rule:evenodd;fill:rgb(100%,100%,100%);fill-opacity:1;" d="M 59.015625 58.347656 C 68.496094 58.347656 76.179688 66.035156 76.179688 75.515625 L 76.179688 134.269531 C 76.179688 161.292969 98.085938 183.199219 125.109375 183.199219 C 152.132812 183.199219 174.039062 161.292969 174.039062 134.269531 L 174.039062 75.515625 C 174.039062 66.035156 181.726562 58.347656 191.207031 58.347656 L 191.207031 134.269531 C 191.207031 170.773438 161.613281 200.367188 125.109375 200.367188 C 88.605469 200.367188 59.015625 170.773438 59.015625 134.269531 Z M 59.015625 58.347656 "/>
<path style=" stroke:none;fill-rule:evenodd;fill:rgb(100%,100%,100%);fill-opacity:1;" d="M 88.527344 86.214844 C 96.34375 86.214844 102.679688 92.550781 102.679688 100.367188 L 102.679688 102.703125 C 108.871094 97.894531 116.644531 95.035156 125.085938 95.035156 C 145.277344 95.035156 161.648438 111.402344 161.648438 131.59375 C 161.648438 151.785156 145.277344 168.152344 125.085938 168.152344 C 104.894531 168.152344 88.527344 151.785156 88.527344 131.59375 C 88.527344 131.207031 88.53125 130.824219 88.546875 130.4375 L 88.527344 130.4375 Z M 102.679688 131.59375 C 102.679688 143.96875 112.710938 154 125.085938 154 C 137.464844 154 147.496094 143.96875 147.496094 131.59375 C 147.496094 119.21875 137.460938 109.1875 125.085938 109.1875 C 112.710938 109.1875 102.679688 119.21875 102.679688 131.59375 Z M 102.679688 131.59375 "/>
<path style=" stroke:none;fill-rule:nonzero;fill:rgb(100%,100%,100%);fill-opacity:1;" d="M 162.34375 81.386719 C 162.34375 86.039062 158.574219 89.808594 153.921875 89.808594 C 149.269531 89.808594 145.496094 86.039062 145.496094 81.386719 C 145.496094 76.734375 149.269531 72.960938 153.921875 72.960938 C 158.574219 72.960938 162.34375 76.734375 162.34375 81.386719 Z M 162.34375 81.386719 "/>
</g>
</svg>
